static/images/logos/devfest_gray_text.svg

<svg fill="none" height="349" viewBox="0 0 2657 349" width="2657" xmlns="http://www.w3.org/2000/svg"><g fill="#757575"><path d="m445 85h58.789c13.766 0 26.155 2.1075 37.168 6.3224s20.406 10.2136 28.18 17.9946c7.774 7.619 13.685 16.779 17.734 27.478 4.21 10.7 6.316 22.453 6.316 35.26 0 12.969-2.106 24.803-6.316 35.502-4.049 10.7-9.96 19.859-17.734 27.479-7.774 7.619-17.167 13.536-28.18 17.751s-23.402 6.322-37.168 6.322h-58.789zm57.331 142.984c9.555 0 17.977-1.297 25.265-3.891 7.288-2.756 13.361-6.566 18.22-11.429 4.858-4.863 8.502-10.7 10.931-17.508 2.43-6.971 3.644-14.671 3.644-23.101s-1.214-16.05-3.644-22.858c-2.429-6.971-6.073-12.888-10.931-17.752-4.859-4.863-10.932-8.592-18.22-11.185-7.288-2.756-15.71-4.134-25.265-4.134h-24.536v111.858z"/><path d="m724.879 230.415c-5.506 9.727-12.956 17.59-22.349 23.588-9.232 5.998-20.568 8.997-34.011 8.997-9.069 0-17.49-1.54-25.264-4.62-7.612-3.242-14.252-7.701-19.92-13.375-5.669-5.673-10.122-12.32-13.361-19.939-3.078-7.782-4.616-16.293-4.616-25.533 0-8.592 1.538-16.698 4.616-24.317 3.077-7.782 7.368-14.509 12.875-20.183 5.506-5.836 11.984-10.456 19.434-13.861 7.612-3.404 15.952-5.106 25.022-5.106 9.555 0 18.058 1.621 25.507 4.863 7.45 3.08 13.685 7.457 18.706 13.131 5.02 5.512 8.826 12.078 11.418 19.697 2.591 7.619 3.886 15.887 3.886 24.803v2.918c-.162.973-.242 1.864-.242 2.675-.162.811-.243 1.702-.243 2.675h-89.641c.648 4.863 1.943 9.078 3.887 12.645 2.105 3.404 4.615 6.322 7.53 8.754 3.078 2.269 6.398 3.972 9.961 5.106 3.562.973 7.206 1.459 10.931 1.459 7.288 0 13.28-1.621 17.977-4.863 4.859-3.404 8.665-7.619 11.418-12.645zm-28.909-46.202c-.162-2.107-.89-4.458-2.186-7.052-1.134-2.594-2.915-5.025-5.344-7.295-2.268-2.269-5.183-4.134-8.746-5.593-3.401-1.459-7.531-2.188-12.389-2.188-6.802 0-12.794 1.945-17.977 5.836-5.182 3.89-8.826 9.321-10.932 16.292z"/><path d="m732.142 139.956h36.197l29.637 75.869h1.701l29.88-75.869h35.953l-51.258 119.153h-31.338z"/><path d="m883.886 85h110.289v31.126h-77.494v42.311h69.721v31.126h-69.721v69.546h-32.795z"/><path d="m1120.82 230.415c-5.5 9.727-12.95 17.59-22.34 23.588-9.24 5.998-20.57 8.997-34.01 8.997-9.07 0-17.5-1.54-25.27-4.62-7.61-3.242-14.25-7.701-19.92-13.375-5.67-5.673-10.12-12.32-13.36-19.939-3.08-7.782-4.62-16.293-4.62-25.533 0-8.592 1.54-16.698 4.62-24.317 3.08-7.782 7.37-14.509 12.87-20.183 5.51-5.836 11.99-10.456 19.44-13.861 7.61-3.404 15.95-5.106 25.02-5.106 9.56 0 18.06 1.621 25.51 4.863 7.45 3.08 13.68 7.457 18.7 13.131 5.02 5.512 8.83 12.078 11.42 19.697s3.89 15.887 3.89 24.803v2.918c-.16.973-.24 1.864-.24 2.675-.17.811-.25 1.702-.25 2.675h-89.64c.65 4.863 1.95 9.078 3.89 12.645 2.1 3.404 4.61 6.322 7.53 8.754 3.08 2.269 6.4 3.972 9.96 5.106 3.56.973 7.21 1.459 10.93 1.459 7.29 0 13.28-1.621 17.98-4.863 4.86-3.404 8.66-7.619 11.42-12.645zm-28.9-46.202c-.17-2.107-.89-4.458-2.19-7.052-1.13-2.594-2.92-5.025-5.34-7.295-2.27-2.269-5.19-4.134-8.75-5.593-3.4-1.459-7.53-2.188-12.39-2.188-6.8 0-12.79 1.945-17.98 5.836-5.18 3.89-8.82 9.321-10.93 16.292z"/><path d="m1191.41 263c-7.78 0-14.74-.973-20.89-2.918-6-1.945-11.26-4.458-15.8-7.538-4.37-3.243-8.09-6.89-11.17-10.943-3.08-4.215-5.43-8.43-7.04-12.645l28.42-12.158c2.75 6.16 6.4 10.78 10.93 13.86 4.7 2.919 9.88 4.378 15.55 4.378 5.83 0 10.44-1.054 13.84-3.162 3.41-2.107 5.11-4.62 5.11-7.538 0-3.242-1.46-5.836-4.38-7.781-2.75-2.108-7.61-3.972-14.57-5.593l-16.76-3.648c-3.73-.81-7.62-2.107-11.67-3.891-3.88-1.783-7.45-4.052-10.68-6.808-3.24-2.756-5.92-6.079-8.02-9.97-2.11-3.891-3.16-8.43-3.16-13.618 0-5.836 1.22-11.023 3.64-15.563 2.6-4.539 6.08-8.348 10.45-11.428 4.37-3.243 9.48-5.674 15.31-7.296 5.99-1.783 12.38-2.674 19.19-2.674 11.33 0 21.46 2.269 30.36 6.808 8.91 4.377 15.47 11.429 19.68 21.156l-27.45 11.186c-2.27-4.701-5.59-8.106-9.96-10.213-4.37-2.108-8.75-3.161-13.12-3.161-4.53 0-8.5.972-11.9 2.918-3.4 1.783-5.1 4.133-5.1 7.051 0 2.756 1.37 4.945 4.13 6.566 2.91 1.621 6.8 3.08 11.66 4.377l18.22 4.377c12.14 2.918 21.13 7.619 26.96 14.104 5.99 6.322 8.99 13.861 8.99 22.615 0 5.187-1.22 10.132-3.64 14.833-2.43 4.701-5.92 8.916-10.45 12.645-4.37 3.566-9.72 6.403-16.03 8.511-6.16 2.107-13.04 3.161-20.65 3.161z"/><path d="m1273.64 167.191h-20.89v-27.235h20.89v-36.475h31.83v36.475h29.15v27.235h-29.15v46.202c0 2.756.24 5.35.73 7.782.64 2.269 1.78 4.215 3.4 5.836 2.26 2.594 5.5 3.891 9.71 3.891 2.76 0 4.94-.244 6.56-.73 1.62-.648 3.16-1.459 4.62-2.432l8.99 27.965c-3.73 1.783-7.78 3.08-12.15 3.891-4.21.972-8.91 1.459-14.09 1.459-5.99 0-11.42-.892-16.28-2.675-4.69-1.946-8.66-4.539-11.9-7.782-7.61-7.295-11.42-17.67-11.42-31.125z"/><path d="m1464.84 106.399v152.71h-22.35v-152.71h-48.58v-21.399h119.52v21.399z"/><path d="m1506.62 199.533c0-18.319 5.74-33.477 17.24-45.473 11.66-11.996 26.32-17.994 43.97-17.994 17.66 0 32.23 5.998 43.73 17.994 11.66 11.996 17.49 27.154 17.49 45.473 0 18.481-5.83 33.638-17.49 45.472-11.5 11.997-26.07 17.995-43.73 17.995-17.65 0-32.31-5.998-43.97-17.995-11.5-11.996-17.24-27.153-17.24-45.472zm22.34 0c0 12.807 3.73 23.182 11.18 31.125 7.45 7.944 16.68 11.916 27.69 11.916 11.02 0 20.25-3.972 27.7-11.916 7.45-7.943 11.17-18.318 11.17-31.125 0-12.645-3.72-22.939-11.17-30.883-7.61-8.105-16.85-12.158-27.7-12.158s-20.08 4.053-27.69 12.158c-7.45 7.944-11.18 18.238-11.18 30.883z"/><path d="m1752.63 259.109h-21.38v-16.535h-.97c-3.4 5.836-8.67 10.699-15.79 14.59-6.97 3.891-14.26 5.836-21.87 5.836-14.57 0-25.83-4.134-33.76-12.402-7.78-8.43-11.66-20.345-11.66-35.746v-74.896h22.34v73.437c.49 19.454 10.29 29.181 29.4 29.181 8.91 0 16.36-3.567 22.35-10.7 5.99-7.295 8.99-15.968 8.99-26.019v-65.899h22.35z"/><path d="m1802.18 85v174.109h-22.35v-174.109z"/><path d="m1821.43 199.533c0-18.319 5.75-33.477 17.24-45.473 11.67-11.996 26.32-17.994 43.97-17.994 17.66 0 32.23 5.998 43.73 17.994 11.66 11.996 17.49 27.154 17.49 45.473 0 18.481-5.83 33.638-17.49 45.472-11.5 11.997-26.07 17.995-43.73 17.995-17.65 0-32.3-5.998-43.97-17.995-11.49-11.996-17.24-27.153-17.24-45.472zm22.35 0c0 12.807 3.72 23.182 11.17 31.125 7.45 7.944 16.68 11.916 27.69 11.916 11.02 0 20.25-3.972 27.7-11.916 7.45-7.943 11.17-18.318 11.17-31.125 0-12.645-3.72-22.939-11.17-30.883-7.61-8.105-16.84-12.158-27.7-12.158-10.85 0-20.08 4.053-27.69 12.158-7.45 7.944-11.17 18.238-11.17 30.883z"/><path d="m2067.44 259.109h-21.38v-16.535h-.97c-3.4 5.836-8.67 10.699-15.79 14.59-6.97 3.891-14.25 5.836-21.87 5.836-14.57 0-25.83-4.134-33.76-12.402-7.78-8.43-11.66-20.345-11.66-35.746v-74.896h22.35v73.437c.48 19.454 10.28 29.181 29.39 29.181 8.91 0 16.36-3.567 22.35-10.7 5.99-7.295 8.99-15.968 8.99-26.019v-65.899h22.35z"/><path d="m2184.56 226.038c0 10.375-4.54 19.13-13.61 26.263s-20.48 10.699-34.25 10.699c-11.99 0-22.51-3.08-31.58-9.24-9.07-6.323-15.55-14.591-19.44-24.804l19.92-8.511c2.92 7.133 7.13 12.726 12.64 16.779 5.67 3.891 11.82 5.836 18.46 5.836 7.13 0 13.04-1.54 17.73-4.62 4.86-3.08 7.29-6.728 7.29-10.943 0-7.619-5.83-13.212-17.49-16.778l-20.41-5.107c-23.16-5.836-34.73-17.022-34.73-33.557 0-10.862 4.37-19.535 13.11-26.019 8.91-6.647 20.25-9.97 34.01-9.97 10.53 0 20 2.512 28.43 7.538 8.58 5.025 14.57 11.753 17.97 20.183l-19.92 8.268c-2.26-5.026-5.99-8.917-11.17-11.672-5.02-2.919-10.69-4.378-17.01-4.378-5.83 0-11.09 1.459-15.79 4.378-4.53 2.918-6.8 6.484-6.8 10.699 0 6.809 6.4 11.672 19.19 14.59l17.98 4.62c23.64 5.836 35.47 17.752 35.47 35.746z"/><path d="m2258.64 263c-17.49 0-31.9-5.998-43.24-17.995-11.34-11.996-17.01-27.153-17.01-45.472 0-18.157 5.51-33.233 16.52-45.23 11.02-12.158 25.11-18.237 42.27-18.237 17.66 0 31.66 5.755 42.03 17.265 10.53 11.348 15.79 27.316 15.79 47.904l-.24 2.432h-93.53c.32 11.672 4.21 21.074 11.66 28.207s16.36 10.7 26.72 10.7c14.25 0 25.43-7.133 33.53-21.399l19.92 9.727c-5.35 10.051-12.8 17.913-22.35 23.587-9.4 5.674-20.09 8.511-32.07 8.511zm-35.71-77.814h68.26c-.64-8.268-4.05-15.077-10.2-20.426-5.99-5.512-14.09-8.268-24.29-8.268-8.42 0-15.71 2.594-21.87 7.781-5.99 5.188-9.96 12.159-11.9 20.913z"/></g><path d="m352.31 147.75-109.985 63.5c-15.066 8.698-20.229 27.964-11.53 43.03 8.698 15.066 27.964 20.228 43.03 11.53l109.985-63.5c15.066-8.699 20.228-27.964 11.53-43.03-8.699-15.066-27.964-20.228-43.03-11.53z" fill="#fcbc05"/><path d="m384.81 147.25-109.985-63.5c-15.066-8.6985-34.332-3.5364-43.03 11.5298-8.699 15.0662-3.536 34.3312 11.53 43.0302l109.985 63.5c15.066 8.698 34.331 3.536 43.03-11.53 8.698-15.066 3.536-34.332-11.53-43.03z" fill="#0d9d58"/><path d="m28.2799 146.25 109.9851-63.5c15.066-8.6985 34.331-3.5364 43.03 11.5298 8.698 15.0662 3.536 34.3312-11.53 43.0302l-109.9851 63.5c-15.0662 8.698-34.3313 3.536-43.0298-11.53-8.69849-15.066-3.5364-34.332 11.5298-43.03z" fill="#ea4334"/><path d="m58.7799 146.75 109.9851 63.5c15.066 8.698 20.228 27.964 11.53 43.03-8.699 15.066-27.964 20.228-43.03 11.53l-109.9851-63.5c-15.0662-8.699-20.22829-27.964-11.5298-43.03 8.6985-15.066 27.9636-20.228 43.0298-11.53z" fill="#4285f4"/></svg>

<svg width="2657" height="349" viewBox="0 0 2657 349" fill="none" xmlns="http://www.w3.org/2000/svg">
<path d="M445 85H503.789C517.555 85 529.944 87.1075 540.957 91.3224C551.97 95.5373 561.363 101.536 569.137 109.317C576.911 116.936 582.822 126.096 586.871 136.795C591.081 147.495 593.187 159.248 593.187 172.055C593.187 185.024 591.081 196.858 586.871 207.557C582.822 218.257 576.911 227.416 569.137 235.036C561.363 242.655 551.97 248.572 540.957 252.787C529.944 257.002 517.555 259.109 503.789 259.109H445V85ZM502.331 227.984C511.886 227.984 520.308 226.687 527.596 224.093C534.884 221.337 540.957 217.527 545.816 212.664C550.674 207.801 554.318 201.964 556.747 195.156C559.177 188.185 560.391 180.485 560.391 172.055C560.391 163.625 559.177 156.005 556.747 149.197C554.318 142.226 550.674 136.309 545.816 131.445C540.957 126.582 534.884 122.853 527.596 120.26C520.308 117.504 511.886 116.126 502.331 116.126H477.795V227.984H502.331Z" fill="#757575"/>
<path d="M724.879 230.415C719.373 240.142 711.923 248.005 702.53 254.003C693.298 260.001 681.962 263 668.519 263C659.45 263 651.029 261.46 643.255 258.38C635.643 255.138 629.003 250.679 623.335 245.005C617.666 239.332 613.213 232.685 609.974 225.066C606.896 217.284 605.358 208.773 605.358 199.533C605.358 190.941 606.896 182.835 609.974 175.216C613.051 167.434 617.342 160.707 622.849 155.033C628.355 149.197 634.833 144.577 642.283 141.172C649.895 137.768 658.235 136.066 667.305 136.066C676.86 136.066 685.363 137.687 692.812 140.929C700.262 144.009 706.497 148.386 711.518 154.06C716.538 159.572 720.344 166.138 722.936 173.757C725.527 181.376 726.822 189.644 726.822 198.56C726.822 199.695 726.822 200.668 726.822 201.478C726.66 202.451 726.58 203.342 726.58 204.153C726.418 204.964 726.337 205.855 726.337 206.828H636.696C637.344 211.691 638.639 215.906 640.583 219.473C642.688 222.877 645.198 225.795 648.113 228.227C651.191 230.496 654.511 232.199 658.074 233.333C661.636 234.306 665.28 234.792 669.005 234.792C676.293 234.792 682.285 233.171 686.982 229.929C691.841 226.525 695.647 222.31 698.4 217.284L724.879 230.415ZM695.97 184.213C695.808 182.106 695.08 179.755 693.784 177.161C692.65 174.567 690.869 172.136 688.44 169.866C686.172 167.597 683.257 165.732 679.694 164.273C676.293 162.814 672.163 162.085 667.305 162.085C660.503 162.085 654.511 164.03 649.328 167.921C644.146 171.811 640.502 177.242 638.396 184.213H695.97Z" fill="#757575"/>
<path d="M732.142 139.956H768.339L797.976 215.825H799.677L829.557 139.956H865.51L814.252 259.109H782.914L732.142 139.956Z" fill="#757575"/>
<path d="M883.886 85H994.175V116.126H916.681V158.437H986.402V189.563H916.681V259.109H883.886V85Z" fill="#757575"/>
<path d="M1120.82 230.415C1115.32 240.142 1107.87 248.005 1098.48 254.003C1089.24 260.001 1077.91 263 1064.47 263C1055.4 263 1046.97 261.46 1039.2 258.38C1031.59 255.138 1024.95 250.679 1019.28 245.005C1013.61 239.332 1009.16 232.685 1005.92 225.066C1002.84 217.284 1001.3 208.773 1001.3 199.533C1001.3 190.941 1002.84 182.835 1005.92 175.216C1009 167.434 1013.29 160.707 1018.79 155.033C1024.3 149.197 1030.78 144.577 1038.23 141.172C1045.84 137.768 1054.18 136.066 1063.25 136.066C1072.81 136.066 1081.31 137.687 1088.76 140.929C1096.21 144.009 1102.44 148.386 1107.46 154.06C1112.48 159.572 1116.29 166.138 1118.88 173.757C1121.47 181.376 1122.77 189.644 1122.77 198.56C1122.77 199.695 1122.77 200.668 1122.77 201.478C1122.61 202.451 1122.53 203.342 1122.53 204.153C1122.36 204.964 1122.28 205.855 1122.28 206.828H1032.64C1033.29 211.691 1034.59 215.906 1036.53 219.473C1038.63 222.877 1041.14 225.795 1044.06 228.227C1047.14 230.496 1050.46 232.199 1054.02 233.333C1057.58 234.306 1061.23 234.792 1064.95 234.792C1072.24 234.792 1078.23 233.171 1082.93 229.929C1087.79 226.525 1091.59 222.31 1094.35 217.284L1120.82 230.415ZM1091.92 184.213C1091.75 182.106 1091.03 179.755 1089.73 177.161C1088.6 174.567 1086.81 172.136 1084.39 169.866C1082.12 167.597 1079.2 165.732 1075.64 164.273C1072.24 162.814 1068.11 162.085 1063.25 162.085C1056.45 162.085 1050.46 164.03 1045.27 167.921C1040.09 171.811 1036.45 177.242 1034.34 184.213H1091.92Z" fill="#757575"/>
<path d="M1191.41 263C1183.63 263 1176.67 262.027 1170.52 260.082C1164.52 258.137 1159.26 255.624 1154.72 252.544C1150.35 249.301 1146.63 245.654 1143.55 241.601C1140.47 237.386 1138.12 233.171 1136.51 228.956L1164.93 216.798C1167.68 222.958 1171.33 227.578 1175.86 230.658C1180.56 233.577 1185.74 235.036 1191.41 235.036C1197.24 235.036 1201.85 233.982 1205.25 231.874C1208.66 229.767 1210.36 227.254 1210.36 224.336C1210.36 221.094 1208.9 218.5 1205.98 216.555C1203.23 214.447 1198.37 212.583 1191.41 210.962L1174.65 207.314C1170.92 206.504 1167.03 205.207 1162.98 203.423C1159.1 201.64 1155.53 199.371 1152.3 196.615C1149.06 193.859 1146.38 190.536 1144.28 186.645C1142.17 182.754 1141.12 178.215 1141.12 173.027C1141.12 167.191 1142.34 162.004 1144.76 157.464C1147.36 152.925 1150.84 149.116 1155.21 146.036C1159.58 142.793 1164.69 140.362 1170.52 138.74C1176.51 136.957 1182.9 136.066 1189.71 136.066C1201.04 136.066 1211.17 138.335 1220.07 142.874C1228.98 147.251 1235.54 154.303 1239.75 164.03L1212.3 175.216C1210.03 170.515 1206.71 167.11 1202.34 165.003C1197.97 162.895 1193.59 161.842 1189.22 161.842C1184.69 161.842 1180.72 162.814 1177.32 164.76C1173.92 166.543 1172.22 168.893 1172.22 171.811C1172.22 174.567 1173.59 176.756 1176.35 178.377C1179.26 179.998 1183.15 181.457 1188.01 182.754L1206.23 187.131C1218.37 190.049 1227.36 194.75 1233.19 201.235C1239.18 207.557 1242.18 215.096 1242.18 223.85C1242.18 229.037 1240.96 233.982 1238.54 238.683C1236.11 243.384 1232.62 247.599 1228.09 251.328C1223.72 254.894 1218.37 257.731 1212.06 259.839C1205.9 261.946 1199.02 263 1191.41 263Z" fill="#757575"/>
<path d="M1273.64 167.191H1252.75V139.956H1273.64V103.481H1305.47V139.956H1334.62V167.191H1305.47V213.393C1305.47 216.149 1305.71 218.743 1306.2 221.175C1306.84 223.444 1307.98 225.39 1309.6 227.011C1311.86 229.605 1315.1 230.902 1319.31 230.902C1322.07 230.902 1324.25 230.658 1325.87 230.172C1327.49 229.524 1329.03 228.713 1330.49 227.74L1339.48 255.705C1335.75 257.488 1331.7 258.785 1327.33 259.596C1323.12 260.568 1318.42 261.055 1313.24 261.055C1307.25 261.055 1301.82 260.163 1296.96 258.38C1292.27 256.434 1288.3 253.841 1285.06 250.598C1277.45 243.303 1273.64 232.928 1273.64 219.473V167.191Z" fill="#757575"/>
<path d="M1464.84 106.399V259.109H1442.49V106.399H1393.91V85H1513.43V106.399H1464.84Z" fill="#757575"/>
<path d="M1506.62 199.533C1506.62 181.214 1512.36 166.056 1523.86 154.06C1535.52 142.064 1550.18 136.066 1567.83 136.066C1585.49 136.066 1600.06 142.064 1611.56 154.06C1623.22 166.056 1629.05 181.214 1629.05 199.533C1629.05 218.014 1623.22 233.171 1611.56 245.005C1600.06 257.002 1585.49 263 1567.83 263C1550.18 263 1535.52 257.002 1523.86 245.005C1512.36 233.009 1506.62 217.852 1506.62 199.533ZM1528.96 199.533C1528.96 212.34 1532.69 222.715 1540.14 230.658C1547.59 238.602 1556.82 242.574 1567.83 242.574C1578.85 242.574 1588.08 238.602 1595.53 230.658C1602.98 222.715 1606.7 212.34 1606.7 199.533C1606.7 186.888 1602.98 176.594 1595.53 168.65C1587.92 160.545 1578.68 156.492 1567.83 156.492C1556.98 156.492 1547.75 160.545 1540.14 168.65C1532.69 176.594 1528.96 186.888 1528.96 199.533Z" fill="#757575"/>
<path d="M1752.63 259.109H1731.25V242.574H1730.28C1726.88 248.41 1721.61 253.273 1714.49 257.164C1707.52 261.055 1700.23 263 1692.62 263C1678.05 263 1666.79 258.866 1658.86 250.598C1651.08 242.168 1647.2 230.253 1647.2 214.852V139.956H1669.54V213.393C1670.03 232.847 1679.83 242.574 1698.94 242.574C1707.85 242.574 1715.3 239.007 1721.29 231.874C1727.28 224.579 1730.28 215.906 1730.28 205.855V139.956H1752.63V259.109Z" fill="#757575"/>
<path d="M1802.18 85V259.109H1779.83V85H1802.18Z" fill="#757575"/>
<path d="M1821.43 199.533C1821.43 181.214 1827.18 166.056 1838.67 154.06C1850.34 142.064 1864.99 136.066 1882.64 136.066C1900.3 136.066 1914.87 142.064 1926.37 154.06C1938.03 166.056 1943.86 181.214 1943.86 199.533C1943.86 218.014 1938.03 233.171 1926.37 245.005C1914.87 257.002 1900.3 263 1882.64 263C1864.99 263 1850.34 257.002 1838.67 245.005C1827.18 233.009 1821.43 217.852 1821.43 199.533ZM1843.78 199.533C1843.78 212.34 1847.5 222.715 1854.95 230.658C1862.4 238.602 1871.63 242.574 1882.64 242.574C1893.66 242.574 1902.89 238.602 1910.34 230.658C1917.79 222.715 1921.51 212.34 1921.51 199.533C1921.51 186.888 1917.79 176.594 1910.34 168.65C1902.73 160.545 1893.5 156.492 1882.64 156.492C1871.79 156.492 1862.56 160.545 1854.95 168.65C1847.5 176.594 1843.78 186.888 1843.78 199.533Z" fill="#757575"/>
<path d="M2067.44 259.109H2046.06V242.574H2045.09C2041.69 248.41 2036.42 253.273 2029.3 257.164C2022.33 261.055 2015.05 263 2007.43 263C1992.86 263 1981.6 258.866 1973.67 250.598C1965.89 242.168 1962.01 230.253 1962.01 214.852V139.956H1984.36V213.393C1984.84 232.847 1994.64 242.574 2013.75 242.574C2022.66 242.574 2030.11 239.007 2036.1 231.874C2042.09 224.579 2045.09 215.906 2045.09 205.855V139.956H2067.44V259.109Z" fill="#757575"/>
<path d="M2184.56 226.038C2184.56 236.413 2180.02 245.168 2170.95 252.301C2161.88 259.434 2150.47 263 2136.7 263C2124.71 263 2114.19 259.92 2105.12 253.76C2096.05 247.437 2089.57 239.169 2085.68 228.956L2105.6 220.445C2108.52 227.578 2112.73 233.171 2118.24 237.224C2123.91 241.115 2130.06 243.06 2136.7 243.06C2143.83 243.06 2149.74 241.52 2154.43 238.44C2159.29 235.36 2161.72 231.712 2161.72 227.497C2161.72 219.878 2155.89 214.285 2144.23 210.719L2123.82 205.612C2100.66 199.776 2089.09 188.59 2089.09 172.055C2089.09 161.193 2093.46 152.52 2102.2 146.036C2111.11 139.389 2122.45 136.066 2136.21 136.066C2146.74 136.066 2156.21 138.578 2164.64 143.604C2173.22 148.629 2179.21 155.357 2182.61 163.787L2162.69 172.055C2160.43 167.029 2156.7 163.138 2151.52 160.383C2146.5 157.464 2140.83 156.005 2134.51 156.005C2128.68 156.005 2123.42 157.464 2118.72 160.383C2114.19 163.301 2111.92 166.867 2111.92 171.082C2111.92 177.891 2118.32 182.754 2131.11 185.672L2149.09 190.292C2172.73 196.128 2184.56 208.044 2184.56 226.038Z" fill="#757575"/>
<path d="M2258.64 263C2241.15 263 2226.74 257.002 2215.4 245.005C2204.06 233.009 2198.39 217.852 2198.39 199.533C2198.39 181.376 2203.9 166.3 2214.91 154.303C2225.93 142.145 2240.02 136.066 2257.18 136.066C2274.84 136.066 2288.84 141.821 2299.21 153.331C2309.74 164.679 2315 180.647 2315 201.235L2314.76 203.667H2221.23C2221.55 215.339 2225.44 224.741 2232.89 231.874C2240.34 239.007 2249.25 242.574 2259.61 242.574C2273.86 242.574 2285.04 235.441 2293.14 221.175L2313.06 230.902C2307.71 240.953 2300.26 248.815 2290.71 254.489C2281.31 260.163 2270.62 263 2258.64 263ZM2222.93 185.186H2291.19C2290.55 176.918 2287.14 170.109 2280.99 164.76C2275 159.248 2266.9 156.492 2256.7 156.492C2248.28 156.492 2240.99 159.086 2234.83 164.273C2228.84 169.461 2224.87 176.432 2222.93 185.186Z" fill="#757575"/>
<path d="M352.31 147.75L242.325 211.25C227.259 219.948 222.096 239.214 230.795 254.28C239.493 269.346 258.759 274.508 273.825 265.81L383.81 202.31C398.876 193.611 404.038 174.346 395.34 159.28C386.641 144.214 367.376 139.052 352.31 147.75Z" fill="#FCBC05"/>
<path d="M384.81 147.25L274.825 83.75C259.759 75.0515 240.493 80.2136 231.795 95.2798C223.096 110.346 228.259 129.611 243.325 138.31L353.31 201.81C368.376 210.508 387.641 205.346 396.34 190.28C405.038 175.214 399.876 155.948 384.81 147.25Z" fill="#0D9D58"/>
<path d="M28.2799 146.25L138.265 82.75C153.331 74.0515 172.596 79.2136 181.295 94.2798C189.993 109.346 184.831 128.611 169.765 137.31L59.7799 200.81C44.7137 209.508 25.4486 204.346 16.7501 189.28C8.05161 174.214 13.2137 154.948 28.2799 146.25Z" fill="#EA4334"/>
<path d="M58.7799 146.75L168.765 210.25C183.831 218.948 188.993 238.214 180.295 253.28C171.596 268.346 152.331 273.508 137.265 264.81L27.2799 201.31C12.2137 192.611 7.05161 173.346 15.7501 158.28C24.4486 143.214 43.7137 138.052 58.7799 146.75Z" fill="#4285F4"/>
</svg>
